; generated by Slic3r 1.2.9 on 2016-07-02 at 16:44:04

; external perimeters extrusion width = 0.50mm
; perimeters extrusion width = 0.72mm
; infill extrusion width = 0.72mm
; solid infill extrusion width = 0.72mm
; top infill extrusion width = 0.72mm

M107
M104 S200 ; set temperature
G28 ; home all axes
G1 Z5 F5000 ; lift nozzle

M109 S200 ; wait for temperature to be reached
G21 ; set units to millimeters
G90 ; use absolute coordinates
M82 ; use absolute distances for extrusion
G92 E0
G1 Z0.500 F7800.000
G1 E-2.00000 F2400.00000
G92 E0
G1 X-30.543 Y-0.000 F7800.000
G1 E2.00000 F2400.00000
G1 X-30.543 Y-29.164 E3.84157 F1800.000
G1 X-30.146 Y-31.470 E3.98931
G1 X-29.000 Y-33.510 E4.13705
G1 X-27.238 Y-35.049 E4.28479
G1 X-25.063 Y-35.910 E4.43253
G1 X-23.650 Y-36.057 E4.52221
G1 X-18.650 Y-36.057 E4.83794
G1 X-17.225 Y-35.908 E4.92842
G1 X20.697 Y-27.894 E7.37588 F1800.000
G1 X23.512 Y-26.584 E7.57197
G1 X23.869 Y-26.305 E7.60059
G1 X25.134 Y-25.225 E7.70561
G1 X26.345 Y-24.084 E7.81065
G1 X27.498 Y-22.885 E7.91570
G1 X28.591 Y-21.631 E8.02074
G1 X29.084 Y-21.012 E8.07070
G1 X30.189 Y-18.950 E8.21844
G1 X30.543 Y-16.771 E8.35780
G1 X30.543 Y16.772 E10.47589
G1 X30.146 Y19.077 E10.62363
G1 X28.925 Y21.208 E10.77869
G1 X27.498 Y22.885 E10.91774
G1 X26.584 Y23.845 E11.00143
G1 X25.385 Y24.998 E11.10647
G1 X24.131 Y26.091 E11.21152
G1 X23.512 Y26.584 E11.26147
G1 X20.697 Y27.894 E11.45756
G1 X-17.225 Y35.908 E13.90502
G1 X-18.650 Y36.057 E13.99550
G1 X-23.650 Y36.057 E14.31123
G1 X-25.956 Y35.659 E14.45897
G1 X-27.996 Y34.514 E14.60671
G1 X-29.535 Y32.752 E14.75445
G1 X-30.396 Y30.577 E14.90219
G1 X-30.543 Y29.164 E14.99187
G1 X-30.543 Y0.075 E16.82871
G1 E14.82871 F2400.00000
G92 E0
G1 X-14.879 Y13.261 F7800.000
G1 E2.00000 F2400.00000
G1 X-14.462 Y12.969 E2.03217 F1800.000
G1 X-13.987 Y12.748 E2.06521
G1 X-13.461 Y12.617 E2.09945
G1 X-13.000 Y12.577 E2.12867 F1800.000
G1 X-12.492 Y12.621 E2.16084
G1 X-12.000 Y12.753 E2.19302
G1 X-11.538 Y12.969 E2.22519
G1 X-11.121 Y13.261 E2.25736
G1 X-10.761 Y13.621 E2.28954
G1 X-10.469 Y14.038 E2.32171
G1 X-10.253 Y14.500 E2.35389
G1 X-10.121 Y14.992 E2.38606
G1 X-10.077 Y15.500 E2.41823
G1 X-10.121 Y16.008 E2.45041
G1 X-10.254 Y16.503 E2.48278
G1 X-10.477 Y16.975 E2.51575
G1 X-10.761 Y17.378 E2.54691
G1 X-11.103 Y17.723 E2.57758
G1 X-11.534 Y18.029 E2.61092
G1 X-12.000 Y18.247 E2.64344
G1 X-12.492 Y18.379 E2.67561
G1 X-13.000 Y18.423 E2.70779
G1 X-13.508 Y18.379 E2.73996
G1 X-14.000 Y18.247 E2.77213
G1 X-14.462 Y18.031 E2.80431
G1 X-14.879 Y17.739 E2.83648
G1 X-15.239 Y17.379 E2.86865
G1 X-15.531 Y16.963 E2.90073
G1 X-15.742 Y16.511 E2.93224
G1 X-15.882 Y15.997 E2.96588
G1 X-15.919 Y15.453 E3.00028
G1 X-15.879 Y14.992 E3.02949
G1 X-15.747 Y14.500 E3.06167
G1 X-15.531 Y14.038 E3.09384
G1 X-15.239 Y13.621 E3.12602
G1 X-14.932 Y13.314 E3.15345
G1 X-14.303 Y13.947 F7800.000
G1 X-14.013 Y13.745 E3.17576 F1800.000
G1 X-13.689 Y13.593 E3.19838
G1 X-13.314 Y13.501 E3.22276
G1 X-13.000 Y13.473 E3.24267 F1800.000
G1 X-12.648 Y13.504 E3.26498
G1 X-12.307 Y13.595 E3.28729
G1 X-11.987 Y13.745 E3.30960
G1 X-11.697 Y13.947 E3.33191
G1 X-11.447 Y14.197 E3.35422
G1 X-11.245 Y14.487 E3.37653
G1 X-11.095 Y14.807 E3.39884
G1 X-11.004 Y15.148 E3.42115
G1 X-10.973 Y15.500 E3.44346
G1 X-11.004 Y15.852 E3.46577
G1 X-11.096 Y16.194 E3.48815
G1 X-11.251 Y16.524 E3.51118
G1 X-11.447 Y16.803 E3.53269
G1 X-11.683 Y17.040 E3.55379
G1 X-11.985 Y17.255 E3.57719
G1 X-12.307 Y17.405 E3.59962
G1 X-12.648 Y17.496 E3.62193
G1 X-13.000 Y17.527 E3.64424
G1 X-13.352 Y17.496 E3.66655
G1 X-13.693 Y17.405 E3.68886
G1 X-14.013 Y17.255 E3.71117
G1 X-14.303 Y17.053 E3.73348
G1 X-14.553 Y16.803 E3.75579
G1 X-14.755 Y16.514 E3.77807
G1 X-14.901 Y16.202 E3.79980
G1 X-14.997 Y15.848 E3.82297
G1 X-15.024 Y15.462 E3.84741
G1 X-14.996 Y15.148 E3.86731
G1 X-14.905 Y14.807 E3.88962
G1 X-14.755 Y14.487 E3.91193
G1 X-14.553 Y14.197 E3.93424
G1 X-14.356 Y14.000 E3.95182
G1 X-14.354 Y13.598 F7800.000
G1 X-7.756 Y8.977 F7800.000
G1 X-9.030 Y7.299 E4.08481 F1800.000
G1 X-10.060 Y5.333 E4.22496
G1 X-10.762 Y3.200 E4.36678
G1 X-11.091 Y1.147 E4.49806
G1 X-11.137 Y0.006 E4.57019
G1 X-11.091 Y-1.134 E4.64221
G1 X-10.761 Y-3.190 E4.77370
G1 X-10.061 Y-5.317 E4.91513
G1 X-9.030 Y-7.285 E5.05540
G1 X-7.655 Y-9.098 E5.19909
G1 X-6.131 Y-10.555 E5.33224
G1 X-4.423 Y-11.741 E5.46353
G1 X-2.406 Y-12.718 E5.60503
G1 X-0.238 Y-13.353 E5.74771
G1 X1.941 Y-13.618 E5.88632 F1800.000
G1 X3.881 Y-13.544 E6.00892
G1 X4.348 Y-13.491 E6.03857
G1 X6.287 Y-13.090 E6.16359
G1 X8.245 Y-12.353 E6.29572
G1 X10.236 Y-11.218 E6.44041
G1 X11.939 Y-9.827 E6.57927
G1 X13.392 Y-8.187 E6.71764
G1 X14.447 Y-6.528 E6.84181
G1 X14.647 Y-6.155 E6.86853
G1 X15.427 Y-4.311 E6.99497
G1 X15.938 Y-2.258 E7.12855
G1 X16.130 Y0.007 E7.27204
G1 X15.939 Y2.265 E7.41517
G1 X15.427 Y4.324 E7.54915
G1 X14.543 Y6.383 E7.69061
G1 X13.394 Y8.199 E7.82629
G1 X11.939 Y9.841 E7.96486
G1 X10.235 Y11.232 E8.10374
G1 X8.264 Y12.359 E8.24714
G1 X6.287 Y13.104 E8.38053
G1 X4.315 Y13.512 E8.50770
G1 X3.850 Y13.558 E8.53721
G1 X2.006 Y13.633 E8.65377
G1 X-0.234 Y13.368 E8.79614
G1 X-2.392 Y12.738 E8.93814
G1 X-4.413 Y11.761 E9.07987
G1 X-6.131 Y10.569 E9.21190
G1 X-7.649 Y9.118 E9.34452
G1 X-7.711 Y9.037 E9.35096
G1 X-7.045 Y8.437 F7800.000
G1 X-8.274 Y6.819 E9.47925 F1800.000
G1 X-9.235 Y4.984 E9.61003
G1 X-9.892 Y2.989 E9.74272
G1 X-10.201 Y1.058 E9.86615
G1 X-10.244 Y0.006 E9.93266
G1 X-10.201 Y-1.045 E9.99906
G1 X-9.891 Y-2.978 E10.12270
G1 X-9.236 Y-4.968 E10.25500
G1 X-8.274 Y-6.805 E10.38592
G1 X-6.987 Y-8.502 E10.52042
G1 X-5.564 Y-9.861 E10.64467
G1 X-3.971 Y-10.968 E10.76716
G1 X-2.084 Y-11.882 E10.89957
G1 X-0.057 Y-12.476 E11.03291
G1 X1.978 Y-12.723 E11.16240 F1800.000
G1 X3.814 Y-12.653 E11.27841
G1 X4.207 Y-12.609 E11.30338
G1 X6.038 Y-12.230 E11.42142
G1 X7.864 Y-11.543 E11.54467
G1 X9.729 Y-10.480 E11.68018
G1 X11.319 Y-9.181 E11.80980
G1 X12.677 Y-7.648 E11.93915
G1 X13.676 Y-6.077 E12.05670
G1 X13.841 Y-5.770 E12.07873
G1 X14.578 Y-4.027 E12.19820
G1 X15.054 Y-2.111 E12.32287
G1 X15.234 Y0.007 E12.45708
G1 X15.056 Y2.119 E12.59094
G1 X14.578 Y4.041 E12.71600
G1 X13.759 Y5.951 E12.84723
G1 X12.678 Y7.661 E12.97494
G1 X11.319 Y9.195 E13.10441
G1 X9.728 Y10.494 E13.23406
G1 X7.883 Y11.549 E13.36830
G1 X6.038 Y12.244 E13.49278
G1 X4.180 Y12.628 E13.61259
G1 X3.788 Y12.668 E13.63748
G1 X2.040 Y12.738 E13.74791
G1 X-0.055 Y12.490 E13.88112
G1 X-2.071 Y11.902 E14.01372
G1 X-3.962 Y10.988 E14.14634
G1 X-5.564 Y9.875 E14.26954
G1 X-7.000 Y8.497 E14.39521
G1 X-6.334 Y7.897 F7800.000
G1 X-7.517 Y6.338 E14.51879 F1800.000
G1 X-8.410 Y4.635 E14.64021
G1 X-9.022 Y2.777 E14.76375
G1 X-9.312 Y0.969 E14.87934
G1 X-9.350 Y0.006 E14.94023
G1 X-9.312 Y-0.956 E15.00101
G1 X-9.021 Y-2.766 E15.11681
G1 X-8.411 Y-4.619 E15.23996
G1 X-7.518 Y-6.324 E15.36155
G1 X-6.318 Y-7.906 E15.48685
G1 X-4.998 Y-9.168 E15.60220
G1 X-3.519 Y-10.195 E15.71589
G1 X-1.762 Y-11.046 E15.83921
G1 X0.123 Y-11.598 E15.96322
G1 X2.015 Y-11.828 E16.08360 F1800.000
G1 X3.747 Y-11.763 E16.19301
G1 X4.066 Y-11.726 E16.21328
G1 X5.788 Y-11.370 E16.32435
G1 X7.484 Y-10.732 E16.43873
G1 X9.222 Y-9.741 E16.56507
G1 X10.698 Y-8.535 E16.68543
G1 X11.962 Y-7.109 E16.80575
G1 X12.905 Y-5.627 E16.91670
G1 X13.034 Y-5.385 E16.93403
G1 X13.728 Y-3.744 E17.04653
G1 X14.171 Y-1.965 E17.16228
G1 X14.338 Y0.007 E17.28723
G1 X14.172 Y1.973 E17.41182
G1 X13.728 Y3.758 E17.52795
G1 X12.976 Y5.520 E17.64895
G1 X11.962 Y7.123 E17.76869
G1 X10.698 Y8.549 E17.88906
G1 X9.221 Y9.756 E18.00949
G1 X7.501 Y10.739 E18.13456
G1 X5.789 Y11.384 E18.25014
G1 X4.045 Y11.745 E18.36259
G1 X3.725 Y11.777 E18.38286
G1 X2.075 Y11.843 E18.48716
G1 X0.124 Y11.612 E18.61120
G1 X-1.749 Y11.065 E18.73441
G1 X-3.510 Y10.214 E18.85792
G1 X-4.998 Y9.182 E18.97229
G1 X-6.284 Y7.953 E19.08462
G1 X-6.826 Y7.986 F7800.000
G1 X-10.980 Y18.865 F7800.000
G1 X-10.074 Y17.954 E19.16568 F1800.000
G1 X-9.702 Y17.426 E19.20649
G1 X-9.413 Y16.811 E19.24940
G1 X-9.239 Y16.163 E19.29176
G1 X-9.181 Y15.500 E19.33380
G1 X-9.239 Y14.837 E19.37584
G1 X-9.411 Y14.194 E19.41787
G1 X-9.693 Y13.590 E19.45991
G1 X-10.074 Y13.045 E19.50195
G1 X-10.545 Y12.574 E19.54398
G1 X-11.090 Y12.193 E19.58602
G1 X-11.694 Y11.911 E19.62806
G1 X-12.337 Y11.739 E19.67010
G1 X-13.000 Y11.681 E19.71213
G1 X-13.608 Y11.734 E19.75067
G1 X-14.286 Y11.902 E19.79478
G1 X-14.910 Y12.193 E19.83822
G1 X-15.455 Y12.574 E19.88026
G1 X-15.926 Y13.045 E19.92230
G1 X-16.307 Y13.590 E19.96433
G1 X-16.589 Y14.194 E20.00637
G1 X-16.761 Y14.837 E20.04841
G1 X-16.814 Y15.445 E20.08694
G1 X-16.767 Y16.145 E20.13129
G1 X-16.584 Y16.820 E20.17541
G1 X-16.306 Y17.412 E20.21669
G1 X-15.926 Y17.955 E20.25857
G1 X-15.016 Y18.865 E20.33981
G1 X-21.365 Y18.865 E20.74070
G1 X-21.365 Y-18.865 E23.12313
G1 X-15.013 Y-18.865 E23.52423
G1 X-15.906 Y-17.976 E23.60381
G1 X-16.304 Y-17.418 E23.64710
G1 X-16.589 Y-16.806 E23.68969
G1 X-16.761 Y-16.163 E23.73173
G1 X-16.819 Y-15.500 E23.77377
G1 X-16.761 Y-14.833 E23.81604
G1 X-16.584 Y-14.180 E23.85875
G1 X-16.306 Y-13.588 E23.90003
G1 X-15.928 Y-13.048 E23.94170
G1 X-15.476 Y-12.594 E23.98213
G1 X-14.918 Y-12.196 E24.02542
G1 X-14.306 Y-11.911 E24.06801
G1 X-13.663 Y-11.739 E24.11005
G1 X-13.000 Y-11.681 E24.15209
G1 X-12.333 Y-11.739 E24.19436
G1 X-11.680 Y-11.916 E24.23707
G1 X-11.088 Y-12.194 E24.27835
G1 X-10.548 Y-12.573 E24.32002
G1 X-10.094 Y-13.024 E24.36045
G1 X-9.696 Y-13.582 E24.40374
G1 X-9.411 Y-14.194 E24.44634
G1 X-9.239 Y-14.837 E24.48837
G1 X-9.181 Y-15.500 E24.53041
G1 X-9.239 Y-16.167 E24.57269
G1 X-9.416 Y-16.820 E24.61540
G1 X-9.694 Y-17.412 E24.65667
G1 X-10.072 Y-17.952 E24.69834
G1 X-10.980 Y-18.865 E24.77959
G1 X15.984 Y-18.865 E26.48223
G1 X15.064 Y-17.944 E26.56442
G1 X14.674 Y-17.371 E26.60818
G1 X14.411 Y-16.804 E26.64769
G1 X14.253 Y-16.217 E26.68606
G1 X14.179 Y-15.522 E26.73017
G1 X14.239 Y-14.837 E26.77361
G1 X14.411 Y-14.194 E26.81565
G1 X14.693 Y-13.590 E26.85769
G1 X15.074 Y-13.045 E26.89972
G1 X15.545 Y-12.574 E26.94176
G1 X16.090 Y-12.193 E26.98380
G1 X16.714 Y-11.902 E27.02724
G1 X17.392 Y-11.734 E27.07134
G1 X18.000 Y-11.681 E27.10989
G1 X18.663 Y-11.739 E27.15192
G1 X19.306 Y-11.911 E27.19396
G1 X19.910 Y-12.193 E27.23599
G1 X20.455 Y-12.574 E27.27803
G1 X21.365 Y-13.484 E27.35927
G1 X21.365 Y13.484 E29.06219
G1 X20.455 Y12.574 E29.14343
G1 X19.910 Y12.193 E29.18546
G1 X19.306 Y11.911 E29.22750
G1 X18.663 Y11.739 E29.26954
G1 X18.000 Y11.681 E29.31158
G1 X17.392 Y11.734 E29.35011
G1 X16.714 Y11.902 E29.39422
G1 X16.090 Y12.193 E29.43767
G1 X15.545 Y12.574 E29.47970
G1 X15.074 Y13.045 E29.52174
G1 X14.693 Y13.590 E29.56378
G1 X14.411 Y14.194 E29.60581
G1 X14.239 Y14.837 E29.64785
G1 X14.181 Y15.500 E29.68989
G1 X14.239 Y16.163 E29.73193
G1 X14.411 Y16.806 E29.77396
G1 X14.693 Y17.410 E29.81600
G1 X15.074 Y17.955 E29.85801
G1 X15.984 Y18.865 E29.93925
G1 X-10.905 Y18.865 E31.63713
G1 X-13.000 Y-12.577 F7800.000
G1 X-13.508 Y-12.621 E31.66930 F1800.000
G1 X-14.000 Y-12.753 E31.70148
G1 X-14.466 Y-12.971 E31.73399
G1 X-14.897 Y-13.277 E31.76734
G1 X-15.240 Y-13.623 E31.79812
G1 X-15.531 Y-14.037 E31.83007
G1 X-15.742 Y-14.489 E31.86157
G1 X-15.878 Y-14.990 E31.89436
G1 X-15.923 Y-15.500 E31.92668
G1 X-15.879 Y-16.008 E31.95885
G1 X-15.747 Y-16.500 E31.99103
G1 X-15.529 Y-16.966 E32.02354
G1 X-15.223 Y-17.397 E32.05689
G1 X-14.871 Y-17.747 E32.08825
G1 X-14.430 Y-18.047 E32.12195
G1 X-13.998 Y-18.247 E32.15197
G1 X-13.508 Y-18.379 E32.18405
G1 X-13.047 Y-18.419 E32.21327 F1800.000
G1 X-12.506 Y-18.382 E32.24751
G1 X-12.000 Y-18.247 E32.28054
G1 X-11.534 Y-18.029 E32.31305
G1 X-11.103 Y-17.723 E32.34640
G1 X-10.760 Y-17.377 E32.37718
G1 X-10.469 Y-16.963 E32.40913
G1 X-10.258 Y-16.511 E32.44064
G1 X-10.122 Y-16.010 E32.47342
G1 X-10.077 Y-15.500 E32.50574
G1 X-10.121 Y-14.992 E32.53792
G1 X-10.253 Y-14.500 E32.57009
G1 X-10.471 Y-14.034 E32.60260
G1 X-10.777 Y-13.603 E32.63595
G1 X-11.123 Y-13.260 E32.66673
G1 X-11.537 Y-12.970 E32.69868
G1 X-11.989 Y-12.758 E32.73019
G1 X-12.490 Y-12.622 E32.76297
G1 X-12.925 Y-12.584 E32.79056
G1 X-13.000 Y-13.473 F7800.000
G1 X-13.352 Y-13.504 E32.81287 F1800.000
G1 X-13.693 Y-13.595 E32.83518
G1 X-14.015 Y-13.746 E32.85761
G1 X-14.317 Y-13.960 E32.88101
G1 X-14.553 Y-14.198 E32.90215
G1 X-14.755 Y-14.486 E32.92438
G1 X-14.901 Y-14.798 E32.94611
G1 X-14.996 Y-15.147 E32.96897
G1 X-15.027 Y-15.500 E32.99134
G1 X-14.996 Y-15.852 E33.01365
G1 X-14.905 Y-16.193 E33.03596
G1 X-14.755 Y-16.515 E33.05839
G1 X-14.540 Y-16.817 E33.08179
G1 X-14.300 Y-17.055 E33.10313
G1 X-13.988 Y-17.268 E33.12699
G1 X-13.693 Y-17.405 E33.14752
G1 X-13.352 Y-17.496 E33.16979
G1 X-13.038 Y-17.524 E33.18970 F1800.000
G1 X-12.653 Y-17.497 E33.21408
G1 X-12.307 Y-17.405 E33.23669
G1 X-11.985 Y-17.255 E33.25913
G1 X-11.683 Y-17.040 E33.28252
G1 X-11.447 Y-16.802 E33.30366
G1 X-11.245 Y-16.514 E33.32589
G1 X-11.099 Y-16.202 E33.34763
G1 X-11.004 Y-15.853 E33.37049
G1 X-10.973 Y-15.500 E33.39285
G1 X-11.004 Y-15.148 E33.41516
G1 X-11.095 Y-14.807 E33.43747
G1 X-11.246 Y-14.485 E33.45990
G1 X-11.460 Y-14.183 E33.48330
G1 X-11.698 Y-13.947 E33.50444
G1 X-11.986 Y-13.745 E33.52667
G1 X-12.298 Y-13.599 E33.54841
G1 X-12.647 Y-13.504 E33.57127
G1 X-12.925 Y-13.480 E33.58889
G1 X-13.185 Y-13.172 F7800.000
G1 X15.076 Y-15.514 F7800.000
G1 X15.134 Y-16.053 E33.62314 F1800.000
G1 X15.253 Y-16.498 E33.65226
G1 X15.453 Y-16.930 E33.68228
G1 X15.754 Y-17.372 E33.71611
G1 X16.121 Y-17.739 E33.74886
G1 X16.539 Y-18.031 E33.78104
G1 X17.013 Y-18.252 E33.81407
G1 X17.539 Y-18.383 E33.84831
G1 X18.000 Y-18.423 E33.87753 F1800.000
G1 X18.508 Y-18.379 E33.90970
G1 X19.000 Y-18.247 E33.94188
G1 X19.461 Y-18.031 E33.97405
G1 X19.879 Y-17.739 E34.00622
G1 X20.239 Y-17.379 E34.03840
G1 X20.531 Y-16.962 E34.07057
G1 X20.747 Y-16.500 E34.10274
G1 X20.879 Y-16.008 E34.13492
G1 X20.923 Y-15.500 E34.16709
G1 X20.883 Y-15.039 E34.19631
G1 X20.752 Y-14.513 E34.23056
G1 X20.531 Y-14.039 E34.26358
G1 X20.239 Y-13.621 E34.29576
G1 X19.879 Y-13.261 E34.32793
G1 X19.461 Y-12.969 E34.36010
G1 X19.000 Y-12.753 E34.39228
G1 X18.508 Y-12.621 E34.42445
G1 X18.000 Y-12.577 E34.45662
G1 X17.539 Y-12.617 E34.48585
G1 X17.013 Y-12.748 E34.52009
G1 X16.539 Y-12.969 E34.55312
G1 X16.121 Y-13.261 E34.58529
G1 X15.761 Y-13.621 E34.61747
G1 X15.469 Y-14.039 E34.64964
G1 X15.253 Y-14.500 E34.68181
G1 X15.121 Y-14.992 E34.71398
G1 X15.082 Y-15.439 E34.74228
G1 X15.973 Y-15.505 F7800.000
G1 X16.014 Y-15.889 E34.76666 F1800.000
G1 X16.095 Y-16.193 E34.78653
G1 X16.232 Y-16.488 E34.80705
G1 X16.445 Y-16.801 E34.83096
G1 X16.697 Y-17.053 E34.85348
G1 X16.987 Y-17.255 E34.87579
G1 X17.311 Y-17.407 E34.89840
G1 X17.686 Y-17.499 E34.92278
G1 X18.000 Y-17.527 E34.94269 F1800.000
G1 X18.352 Y-17.496 E34.96500
G1 X18.693 Y-17.405 E34.98731
G1 X19.013 Y-17.255 E35.00962
G1 X19.303 Y-17.053 E35.03193
G1 X19.553 Y-16.803 E35.05424
G1 X19.755 Y-16.513 E35.07655
G1 X19.905 Y-16.193 E35.09886
G1 X19.996 Y-15.852 E35.12117
G1 X20.027 Y-15.500 E35.14348
G1 X19.999 Y-15.186 E35.16338
G1 X19.907 Y-14.811 E35.18776
G1 X19.755 Y-14.487 E35.21038
G1 X19.553 Y-14.197 E35.23269
G1 X19.303 Y-13.947 E35.25500
G1 X19.013 Y-13.745 E35.27731
G1 X18.693 Y-13.595 E35.29962
G1 X18.352 Y-13.504 E35.32193
G1 X18.000 Y-13.473 E35.34424
G1 X17.686 Y-13.501 E35.36414
G1 X17.311 Y-13.593 E35.38852
G1 X16.987 Y-13.745 E35.41114
G1 X16.697 Y-13.947 E35.43345
G1 X16.447 Y-14.197 E35.45576
G1 X16.245 Y-14.487 E35.47807
G1 X16.095 Y-14.807 E35.50038
G1 X16.004 Y-15.148 E35.52269
G1 X15.979 Y-15.430 E35.54057
G1 X15.647 Y-15.712 F7800.000
G1 X18.000 Y12.577 F7800.000
G1 X18.508 Y12.621 E35.57274 F1800.000
G1 X19.000 Y12.753 E35.60492
G1 X19.462 Y12.969 E35.63709
G1 X19.879 Y13.261 E35.66926
G1 X20.239 Y13.621 E35.70144
G1 X20.531 Y14.039 E35.73361
G1 X20.747 Y14.500 E35.76579
G1 X20.879 Y14.992 E35.79796
G1 X20.923 Y15.500 E35.83013
G1 X20.878 Y16.010 E35.86245
G1 X20.742 Y16.511 E35.89524
G1 X20.531 Y16.963 E35.92674
G1 X20.239 Y17.379 E35.95883
G1 X19.879 Y17.739 E35.99100
G1 X19.462 Y18.031 E36.02317
G1 X19.000 Y18.247 E36.05535
